!!!COM: Bach, Johann Sebastian
!!!CDT: 1685/3//-1750/7/28/
!!!OTL@@DE: Christus ist erstanden, hat ueberwunden
!!!OTL@EN:  Christ is risen, has conquered
!!!AGN: 4-Part Chorale
!!!SCT: BH 200
!!!SCT: BWV 284
**harm	**root	**kern	**kern	**kern	**kern
*	*Iorgan	*Iorgan	*Iorgan	*Iorgan	*Iorgan
!	!	!bass	!tenor	!alto	!soprno
*	*	*clefF4	*clefF4	*clefG2	*clefG2
*M4/4	*M4/4	*M4/4	*M4/4	*M4/4	*M4/4
*met(c)	*met(c)	*met(c)	*met(c)	*met(c)	*met(c)
*MM60	*MM60	*MM60	*MM60	*MM60	*MM60
*k[f#c#g#d#a#]	*k[f#c#g#d#a#]	*k[f#c#g#d#a#]	*k[f#c#g#d#a#]	*k[f#c#g#d#a#]	*k[f#c#g#d#a#]
*B:	*B:	*B:	*B:	*B:	*B:
=1-	=1-	=1-	=1-	=1-	=1-
I	4CC	4B	4d#	4f#	4b
Vb	4GG	4A#	4c#	[4f#	4f#
vii/V	4FF#	4G#	4B	8f#]	4g#
.	.	.	.	8e#	.
V	4GG	8F#	4c#	4f#	4a#
.	.	8E	.	.	.
=2	=2	=2	=2	=2	=2
Ib	4CC	4D#	8B	4.f#	2b
.	.	.	8A	.	.
IV	4FF	4E	4G#	.	.
.	.	.	.	[8e	.
I;	4CC;	4BB;	4F#;	8e]	4b;
.	.	.	.	8d#;	.
V/IV	4CC	8B	4B	[4d#	4f#
.	.	8A	.	.	.
=3	=3	=3	=3	=3	=3
vi	8AA	4G#	4B	8d#]	4b
viiob/V	8FF#	.	.	8e#	.
v	4GG	4F#	4c#	4f#	4a
iio7b/v	4AA	4BB	4d	4f#	2g#
V/V	4DD	4C#	8c#	4e#	.
.	.	.	8B	.	.
=4	=4	=4	=4	=4	=4
v;	2GG;	2FF#;	2A;	2c#;	2f#;
v	4GG	4F#	4A	8c#	4f#
.	.	.	.	4d	.
viioD7/v	8FF#	4E#	4B	.	4g#
V7b/v	8DD	.	.	[8c#	.
=5	=5	=5	=5	=5	=5
v	4GG	4F#	8A	8c#]	4a
.	.	.	8F#	8a	.
iv/v	4CC	4BB	4d	8g#	4b
.	.	.	.	8f#	.
Vc	4GG	4C#	[4c#	8e#	4a
.	.	.	.	4f#	.
V/v	4DD	4CC#	8.c#]	.	4g#
.	.	.	.	8e#	.
.	.	.	16B	.	.
!!linebreak: 3
=6	=6	=6	=6	=6	=6
v;	2GG;	2FF#;	2A;	2c#;	2f#;
I	4CC	8BB	[4B	8d#	4f#
.	.	8C#	.	8e	.
Ib	4CC	8D#	8B]	4f#	4b
.	.	8E	8c#	.	.
=7	=7	=7	=7	=7	=7
Ic	4CC	4F#	8d#	4f#	4b
.	.	.	16c#	.	.
.	.	.	16B	.	.
V	4GG	4FF#	8c#	4f#	4a#
.	.	.	[8e	.	.
I;	2CC;	2BB;	8e]	2f#;	2b;
.	.	.	16d#	.	.
.	.	.	16c#	.	.
.	.	.	4d#;	.	.
=8	=8	=8	=8	=8	=8
IV	4FF	8E	4e	4g#	4b
.	.	8F#	.	.	.
IV	4FF	8E	4e	8g#	4b
.	.	8D#	.	8f#	.
ii	4DD	8C#	8e	8e	4cc#
.	.	8D#	8d#	8f#	.
iib	4DD	8E	8c#	[4g#	4cc#
.	.	8F#	8d#	.	.
=9	=9	=9	=9	=9	=9
IVb	4FF	8G#	[4e	4g#]	4b
.	.	8E	.	.	.
ii7	8DD	8F#	8e]	8a	4a
V7/IV	8CC	8BB	8d#	8f#	.
IV;	2FF;	2E;	2B;	2e;	2g#;
=10	=10	=10	=10	=10	=10
V/IV	4CC	8B	4B	4d#	4f#
.	.	8A	.	.	.
vi	8AA	4G#	4B	8d#	4g#
viiob/v	8FF#	.	.	8e#	.
v	4GG	8F#	4c#	[4f#	4a
.	.	8AA	.	.	.
iio7b/v	8AA	8BB	8d	8f#]	4g#
V/v	8DD	8C#	16c#	8e#	.
.	.	.	16B	.	.
!!linebreak: 3
=11	=11	=11	=11	=11	=11
-III;	2EE-;	2D;	2A;	2f#;	2f#;
v	4GG	4F#	8A	8c#	4a
.	.	.	8c#	[8a	.
V/-VII	4FF	4E	4e	8a]	4b
.	.	.	.	8g#	.
=12	=12	=12	=12	=12	=12
-VII	4BB-	8A	4e	2a	4cc#
.	.	8G#	.	.	.
IVb/-VII	8EE-	8F#	8d	.	8dd
Ic/-VII	8BB-	8E	8e	.	8cc#
ii7b/-VII	8CC	8D	8f#	4a	2b
ii7/-VII	8CC	8BB	8d	.	.
V/-VII	4FF	4E	8B	4g#	.
.	.	.	8e	.	.
=13	=13	=13	=13	=13	=13
I/-VII;	2BB-;	2AA;	2e;	2a;	2cc#;
I/-VII	4BB-	4Ay	4e	4.a	4cc#
V/-VII	4FF	4E	4e	.	4b
.	.	.	.	8g#	.
=14	=14	=14	=14	=14	=14
I/-VII	4BB-	8A	4e	4a	4cc#
.	.	8G#	.	.	.
iio7d/v	8AA	8F#	8d	4g#	4b
V7b/v	8DD	8E#	8c#	.	.
v	4GG	8F#	4c#	4f#	4a
.	.	8G#	.	.	.
V7d/IV	4CC	8A	4B	4d#	4f#
.	.	8B	.	.	.
=15	=15	=15	=15	=15	=15
IV	4FF	4E	4B	8e	4g#
.	.	.	.	8d#	.
V7	4GG	4F#	4F#	8c#	4a#
.	.	.	.	8e	.
I;	2CC;	2BB;	2F#;	2d#;	2b;
==	==	==	==	==	==
*-	*-	*-	*-	*-	*-
!!!YOR1: Ludwig Erk, Peters Editions of 1850, 1865; rev. in light of Friedrich
!!!YOR2: Smend, Peters Edition of 1932 & Albert Riemenschneider, 1941.
!!!RDT: 1987 September
!!!YER: 1995 March 1
!!chor2scor: -l 3 -s 0.6 -o %b.pmx
!!!YEC: Copyright 1994, David Huron
!!!YEC: Changes/Additions 2001 by Craig Stuart Sapp
!!!YEN: United States of America
!!!SMA: J.S. Bach Chorale Harmonizations, edited by Ludwig Erk, C.F. Peters
!!!PDT: 1850, 1865
